X: 40
T:Flowers of Edinburgh
M:4/4
L:1/8
Q:80
C:British Isles
R:Reel
K:G
GE|:"G"D2 (DE G2) GA|B-ABd c-BAG|"D"FGFE D2 F-G|AFBF- E2 GE|!
"G"D2 (DEG2) GA|BABd "C"efge|"D"dc(BA G)FGA|[1"G"B2 G-F G2 G-E:|[2"G"B2
G-FG2 e-f||!
"G"g2g2g(bag)|"D"fefe f(agf)|"C"edef gfed|"Em"B2 e2 e2 g-e|"G"dBGB d2d2|
